web/assets/img/functions/980-full.svg

<svg width="512" height="512" viewBox="0 0 512 512" fill="none" xmlns="http://www.w3.org/2000/svg">
    <path d="M98.082 462.76V173.85L120.136 179.363L157.628 157.309L198.98 179.363L236.472 157.309L278.375 179.363L318.624 157.309L357.77 179.363L392.506 157.309L417.868 163.925V462.76L387.543 495.29H120.136L98.082 462.76Z"
          fill="#12A71E"/>
    <path d="M426.002 120.49C425.712 99.23 406.862 80.06 372.862 66.49C355.862 59.67 335.802 54.49 314.012 51.24V17C314.012 15.6859 313.753 14.3848 313.25 13.1709C312.746 11.957 312.009 10.8541 311.079 9.9254C310.15 8.99668 309.046 8.2603 307.832 7.75834C306.617 7.25638 305.316 6.99869 304.002 7.00001H208.002C205.35 7.00001 202.806 8.05357 200.931 9.92894C199.055 11.8043 198.002 14.3478 198.002 17V51.21C176.212 54.49 156.192 59.64 139.152 66.46C105.152 80.06 86.3017 99.23 86.0117 120.46C86.0117 120.63 86.0117 120.8 86.0117 120.97V457C86.0276 470.256 91.3005 482.964 100.674 492.338C110.047 501.711 122.756 506.984 136.012 507H376.002C389.258 506.984 401.966 501.711 411.34 492.338C420.713 482.964 425.986 470.256 426.002 457V121C426.002 120.83 426.002 120.66 426.002 120.49ZM218.002 27H294.002V48.77C281.682 47.6 269.002 47 256.002 47C243.002 47 230.322 47.6 218.002 48.77V27ZM146.582 85C161.472 79 178.932 74.46 198.002 71.4C204.492 70.4 211.172 69.5 218.002 68.82C230.262 67.63 243.002 67 256.002 67C269.002 67 281.742 67.63 294.002 68.85C300.832 69.53 307.512 70.39 314.002 71.43C333.072 74.49 350.532 79.07 365.422 85.03C384.082 92.49 397.222 101.73 402.882 111.03H109.122C114.782 101.73 127.922 92.49 146.582 85ZM406.002 457C406.002 460.94 405.226 464.841 403.718 468.48C402.21 472.12 400.001 475.427 397.215 478.213C394.429 480.999 391.122 483.209 387.482 484.716C383.842 486.224 379.941 487 376.002 487H136.002C132.062 487 128.161 486.224 124.521 484.716C120.881 483.209 117.574 480.999 114.789 478.213C112.003 475.427 109.793 472.12 108.285 468.48C106.778 464.841 106.002 460.94 106.002 457V131H406.002V457Z"
          fill="#282828"/>
    <path d="M88.9534 175.54C87.8734 174.46 86.9134 173.51 86.0134 172.7V149.89C94.0134 152.31 99.1034 157.4 103.103 161.4C108.023 166.3 110.403 168.47 116.023 168.47C121.643 168.47 124.043 166.3 128.943 161.4C134.403 155.94 141.873 148.47 156.013 148.47C170.14 148.47 177.609 155.925 183.078 161.384L183.093 161.4C188.013 166.3 190.403 168.47 196.013 168.47C201.623 168.47 204.013 166.3 208.943 161.4C214.393 155.94 221.883 148.47 236.013 148.47C250.116 148.47 257.585 155.911 263.062 161.368L263.093 161.4C268.013 166.3 270.413 168.47 276.013 168.47C281.613 168.47 284.013 166.3 288.943 161.4C294.393 155.94 301.893 148.47 316.013 148.47C330.133 148.47 337.603 155.94 343.063 161.4C344.153 162.49 345.113 163.44 346.013 164.25L346.033 187.05C338.033 184.63 332.943 179.54 328.943 175.54C324.013 170.64 321.633 168.47 316.013 168.47C310.393 168.47 307.983 170.64 303.083 175.54L303.06 175.563C297.602 181.021 290.153 188.47 276.013 188.47C261.853 188.47 254.383 181 248.933 175.54C244.013 170.64 241.633 168.47 236.013 168.47C230.393 168.47 227.983 170.64 223.083 175.54C217.633 181 210.163 188.47 196.013 188.47C181.863 188.47 174.393 181 168.933 175.54C164.003 170.64 161.623 168.47 156.003 168.47C150.383 168.47 147.983 170.64 143.083 175.54C137.623 181 130.143 188.47 116.013 188.47C101.883 188.47 94.4134 181 88.9534 175.54Z"
          fill="#282828"/>
    <path d="M248.95 175.54C247.87 174.46 246.91 173.51 246.01 172.7V149.89C254.01 152.31 259.1 157.4 263.1 161.4C268.02 166.3 270.4 168.47 276.02 168.47C281.64 168.47 284.04 166.3 288.94 161.4C294.4 155.94 301.87 148.47 316.01 148.47C330.136 148.47 337.605 155.925 343.074 161.384L343.09 161.4C348.01 166.3 350.4 168.47 356.01 168.47C361.62 168.47 364.01 166.3 368.94 161.4C374.39 155.94 381.88 148.47 396.01 148.47C410.112 148.47 417.581 155.911 423.058 161.368L423.09 161.4L408.93 175.54C404.01 170.64 401.63 168.47 396.01 168.47C390.39 168.47 387.98 170.64 383.08 175.54C377.63 181 370.16 188.47 356.01 188.47C341.86 188.47 334.39 181 328.93 175.54C324 170.64 321.62 168.47 316 168.47C310.38 168.47 307.98 170.64 303.08 175.54C297.62 181 290.14 188.47 276.01 188.47C261.88 188.47 254.41 181 248.95 175.54Z"
          fill="#282828"/>
</svg>

<?xml version="1.0" encoding="utf-8"?>
<!-- Generator: Adobe Illustrator 28.2.0, SVG Export Plug-In . SVG Version: 6.00 Build 0)  -->
<svg version="1.1" id="Calque_1" xmlns="http://www.w3.org/2000/svg" xmlns:xlink="http://www.w3.org/1999/xlink" x="0px" y="0px"
	 viewBox="0 0 512 512" style="enable-background:new 0 0 512 512;" xml:space="preserve">
<style type="text/css">
	.st0{fill:#33B0DF;}
	.st1{fill:#282828;}
</style>
<path class="st0" d="M98.1,462.8V173.9l22.1,5.5l37.5-22.1l41.4,22.1l37.5-22.1l41.9,22.1l40.2-22.1l39.1,22.1l34.7-22.1l25.4,6.6
	v298.8l-30.3,32.5H120.1L98.1,462.8z"/>
<path class="st1" d="M426,120.5c-0.3-21.3-19.1-40.4-53.1-54c-17-6.8-37.1-12-58.9-15.2V17c0-1.3-0.3-2.6-0.8-3.8
	c-0.5-1.2-1.2-2.3-2.2-3.2c-0.9-0.9-2-1.7-3.2-2.2C306.6,7.3,305.3,7,304,7h-96c-2.7,0-5.2,1.1-7.1,2.9c-1.9,1.9-2.9,4.4-2.9,7.1
	v34.2c-21.8,3.3-41.8,8.4-58.9,15.2c-34,13.6-52.9,32.8-53.1,54c0,0.2,0,0.3,0,0.5v336c0,13.3,5.3,26,14.7,35.3
	c9.4,9.4,22.1,14.6,35.3,14.7h240c13.3,0,26-5.3,35.3-14.7c9.4-9.4,14.6-22.1,14.7-35.3V121C426,120.8,426,120.7,426,120.5z M218,27
	h76v21.8c-12.3-1.2-25-1.8-38-1.8c-13,0-25.7,0.6-38,1.8V27z M146.6,85c14.9-6,32.4-10.5,51.4-13.6c6.5-1,13.2-1.9,20-2.6
	c12.3-1.2,25-1.8,38-1.8c13,0,25.7,0.6,38,1.8c6.8,0.7,13.5,1.5,20,2.6c19.1,3.1,36.5,7.6,51.4,13.6c18.7,7.5,31.8,16.7,37.5,26
	H109.1C114.8,101.7,127.9,92.5,146.6,85z M406,457c0,3.9-0.8,7.8-2.3,11.5c-1.5,3.6-3.7,6.9-6.5,9.7c-2.8,2.8-6.1,5-9.7,6.5
	c-3.6,1.5-7.5,2.3-11.5,2.3H136c-3.9,0-7.8-0.8-11.5-2.3c-3.6-1.5-6.9-3.7-9.7-6.5c-2.8-2.8-5-6.1-6.5-9.7
	c-1.5-3.6-2.3-7.5-2.3-11.5V131h300V457z"/>
<path class="st1" d="M89,175.5c-1.1-1.1-2-2-2.9-2.8v-22.8c8,2.4,13.1,7.5,17.1,11.5c4.9,4.9,7.3,7.1,12.9,7.1c5.6,0,8-2.2,12.9-7.1
	c5.5-5.5,12.9-12.9,27.1-12.9c14.1,0,21.6,7.5,27.1,12.9l0,0c4.9,4.9,7.3,7.1,12.9,7.1s8-2.2,12.9-7.1c5.5-5.5,12.9-12.9,27.1-12.9
	c14.1,0,21.6,7.4,27,12.9l0,0c4.9,4.9,7.3,7.1,12.9,7.1s8-2.2,12.9-7.1c5.5-5.5,13-12.9,27.1-12.9s21.6,7.5,27,12.9
	c1.1,1.1,2.1,2,3,2.9l0,22.8c-8-2.4-13.1-7.5-17.1-11.5c-4.9-4.9-7.3-7.1-12.9-7.1s-8,2.2-12.9,7.1l0,0c-5.5,5.5-12.9,12.9-27,12.9
	c-14.2,0-21.6-7.5-27.1-12.9c-4.9-4.9-7.3-7.1-12.9-7.1s-8,2.2-12.9,7.1c-5.4,5.5-12.9,12.9-27.1,12.9s-21.6-7.5-27.1-12.9
	c-4.9-4.9-7.3-7.1-12.9-7.1c-5.6,0-8,2.2-12.9,7.1c-5.5,5.5-12.9,12.9-27.1,12.9S94.4,181,89,175.5z"/>
<path class="st1" d="M248.9,175.5c-1.1-1.1-2-2-2.9-2.8v-22.8c8,2.4,13.1,7.5,17.1,11.5c4.9,4.9,7.3,7.1,12.9,7.1
	c5.6,0,8-2.2,12.9-7.1c5.5-5.5,12.9-12.9,27.1-12.9c14.1,0,21.6,7.5,27.1,12.9l0,0c4.9,4.9,7.3,7.1,12.9,7.1c5.6,0,8-2.2,12.9-7.1
	c5.5-5.5,12.9-12.9,27.1-12.9c14.1,0,21.6,7.4,27,12.9l0,0l-14.2,14.1c-4.9-4.9-7.3-7.1-12.9-7.1s-8,2.2-12.9,7.1
	c-5.4,5.5-12.9,12.9-27.1,12.9c-14.2,0-21.6-7.5-27.1-12.9c-4.9-4.9-7.3-7.1-12.9-7.1s-8,2.2-12.9,7.1c-5.5,5.5-12.9,12.9-27.1,12.9
	S254.4,181,248.9,175.5z"/>
</svg>
